X: 1
T: Cristina's
M: 6/8
L: 1/8
R: jig
K: Emin
~E3 ~B3|~e3 edB|~E3 BAG|~F3 GFG|
~E3 ~B3|~e3 efg|fed (3Bcd e|edB AGF:|
~F3 BAB|e3 fed|~F3 BAG|~F3 GFD|
~F3 ~B3|e3 efg|fed (3Bcd e|edB AGF:|
